X:1
T:Agland, LM
T:Agland, LM
T:Robert Wainwright (1748-1782)
T:Public Domain Courtesy of the Cyber Hymnal™
C:Robert Wainwright (1748-1782)
Z:Public Domain
Z:Courtesy of the Cyber Hymnal™
%%score 1 2 3 4
L:1/8
Q:1/4=115
M:3/4
K:D
V:1 treble 
V:2 treble 
V:3 treble-8 
V:4 bass 
V:1
 A2 | (B2 A2) d2 | d4 A2 | (B2 A2) A2 | A4 ^G2 | A4 A2 | (A2 d2) c2 | (Fd c2) B2 | A4 z2 | z6 | %10
 z4 A2 | AF dA AA | A4 A2 | (B2 A2) d2 | d4 A2 | (B2 A2) G2 | F4 |] %17
V:2
 D2 | D4 F2 | (G2 F2) A2 | (G2 F2) E2 | F4 E2 | E4 F2 | E4 E2 | (F2 E2) D2 | C4 E2 | D>E F2 E2 | %10
 D>E F2 E2 | DA, FD DD | (D2 C2) D2 | D4 F2 | (G2 F2) D2 | (E2 D2) C2 | D4 |] %17
V:3
 F2 | (G2 F2) A2 | (B2 A2) d2 | (e2 d2) c2 | d4 B2 | c4 d2 | (e2 ^G2) A2 | (B2 A2) ^G2 | A4 G2 | %9
 F>G A2 G2 | F>G A2 G2 | FD AF dF | (F2 E2) F2 | (G2 F2) A2 | (B2 A2) (fA) | (G2 F2) E2 | D4 |] %17
V:4
 D,2 | D,4 D,2 | D,4 F,2 | (G,2 A,2) A,,2 | D,4 E,2 | A,4 F,2 | (C,2 B,,2) A,,2 | (D,2 E,2) E,2 | %8
 A,,4 z2 | z6 | z4 A,,2 | D,D, D,D, F,D, | A,,4 D,2 | D,4 D,2 | D,4 F,2 | (G,2 A,2) A,,2 | D,4 |] %17

